packages/icons/svg/Outline/toggle-right.svg

<svg fill="none" height="24" viewBox="0 0 24 24" width="24" xmlns="http://www.w3.org/2000/svg"><path clip-rule="evenodd" d="m15 13c-.552 0-1-.448-1-1s.448-1 1-1 1 .448 1 1-.448 1-1 1zm0-4.00007c-1.654 0-3 1.34597-3 2.99997s1.346 3 3 3 3-1.346 3-3-1.346-2.99997-3-2.99997zm0 8.00017h-5.99998c-2.757 0-5-2.243-5-5 0-2.75704 2.243-5.00004 5-5.00004h5.99998c2.757 0 5 2.243 5 5.00004 0 2.757-2.243 5-5 5zm0-12.0001h-6c-3.859 0-7 3.141-7 7s3.141 7 7 7h6c3.859 0 7-3.141 7-7s-3.141-7-7-7z" fill="#6b7280" fill-rule="evenodd"/></svg>

<svg width="24" height="24" viewBox="0 0 24 24" fill="none" xmlns="http://www.w3.org/2000/svg">
<g id="Icon/Outline/toggle-right">
<path id="Mask" fill-rule="evenodd" clip-rule="evenodd" d="M15 13C14.448 13 14 12.552 14 12C14 11.448 14.448 11 15 11C15.552 11 16 11.448 16 12C16 12.552 15.552 13 15 13ZM15 9C13.346 9 12 10.346 12 12C12 13.654 13.346 15 15 15C16.654 15 18 13.654 18 12C18 10.346 16.654 9 15 9ZM15 17H9C6.243 17 4 14.757 4 12C4 9.243 6.243 7 9 7H15C17.757 7 20 9.243 20 12C20 14.757 17.757 17 15 17ZM15 5H9C5.141 5 2 8.141 2 12C2 15.859 5.141 19 9 19H15C18.859 19 22 15.859 22 12C22 8.141 18.859 5 15 5Z" fill="#000000"/>
</g>
</svg>
